build/img/landings/motion/motion-need-4.svg

<svg width="353" height="356" fill="none" xmlns="http://www.w3.org/2000/svg"><path d="M277.079 211.218l-44.092-7.161 10.447-27.983c2.31-6.193-.709-9.008-6.719-6.262l-52.214 23.871-21.797-30.069c-3.131-4.316-7.06-3.708-8.739 1.353l-11.681 35.26-56.989-6.962c-6.559-.8-8.585 2.797-4.51 8.001l18.426 23.505-39.868 20.163c-7.498 3.79-6.847 7.994 1.447 9.345l44.092 7.161-10.447 27.983c-2.31 6.193.71 9.008 6.719 6.262l52.214-23.871 21.799 30.076c3.13 4.315 7.06 3.707 8.738-1.354l11.682-35.26 56.988 6.962c6.559.8 8.585-2.796 4.511-8.001l-18.421-23.512 39.861-20.162c7.498-3.79 6.847-7.994-1.447-9.345z" fill="#171717"/><path d="M261.789 59.514v-.22c0-32.4-26.273-58.673-58.672-58.673-32.4 0-58.672 26.273-58.672 58.672v.22h-86.27v85.608C25.997 145.397 0 171.559 0 203.738c0 32.233 25.997 58.396 58.175 58.616v89.195h293.747V59.514h-90.133z" fill="#853EF3"/><path d="M324.268 128.618c-11.48-1.104-22.243 3.919-27.873 13.688-1.601.055-3.091 1.49-2.208 3.367 9.107 18.766 15.013 38.747 16.835 59.555 1.655 18.877-1.601 37.753.11 56.575 2.153 23.237 17.331 47.688 40.679 51V147.715c-6.182-9.935-15.621-17.938-27.543-19.097z" fill="#201000"/><path d="M313.892 205.725c6.9-47.909-25.389-82.902-67.944-98.743-16.669-6.182-39.906-15.069-56.133-3.367-11.702 8.389-12.254 25.169.441 32.565.828.496 1.601.386 2.153 0 32.068 33.779 71.532 59.113 115.853 73.85 1.877.607 3.312-.828 3.478-2.318 1.048 0 1.987-.662 2.152-1.987z" fill="#201000"/><path d="M351.921 178.68v45.259c-10.929 10.377-30.302 14.627-47.909 16.007 0 0-10.708 31.902-28.48 40.954 1.876 31.406 3.698 55.968 4.857 70.705.055.386.055.828.11 1.159h-72.195l-.11-1.159-4.912-54.919c-19.65-3.257-37.698-11.26-43.825-30.357-6.182-19.318 6.955-58.286 17.607-96.37 3.533-12.585 8.059-22.685 13.799-30.247 15.565-20.864 39.63-23.237 73.574-8.721 39.409 16.835 36.318 51.166 36.318 51.166 22.41-11.425 40.955-10.542 51.166-3.477z" fill="#fff"/><path d="M280.445 355.635c-1.491 0-2.705-1.159-2.87-2.65-.994-12.253-2.871-37.863-4.968-71.974-.055-1.159.552-2.207 1.545-2.704 16.559-8.39 26.991-38.968 27.101-39.299.386-1.104 1.325-1.876 2.484-1.932 15.013-1.159 33.669-3.974 44.321-15.454a2.868 2.868 0 014.029-.166 2.867 2.867 0 01.166 4.029c-11.591 12.419-30.523 15.786-46.198 17.111-2.539 6.789-12.253 30.743-27.597 39.85 2.042 33.172 3.918 58.065 4.857 70.042.11 1.601-1.049 2.981-2.65 3.091-.055.056-.11.056-.22.056z" fill="#201000"/><path d="M208.25 355.634c-1.491 0-2.705-1.104-2.87-2.594l-4.802-53.87c-24.12-4.471-38.471-14.958-43.88-31.903-5.575-17.386 3.422-48.682 12.971-81.798l4.636-16.228c3.698-13.191 8.39-23.347 14.24-31.185 16.227-21.691 41.396-24.837 76.942-9.659 31.957 13.633 37.201 38.747 37.974 49.234 25.555-11.812 40.347-6.899 48.295-.386 1.214.993 1.435 2.814.442 4.029-.994 1.214-2.815 1.435-4.03.441-10.155-8.224-26.107-7.175-46.198 3.036-.938.497-2.042.386-2.925-.166-.883-.607-1.325-1.6-1.269-2.649.11-1.325 2.318-32.51-34.608-48.24-33.227-14.24-55.525-11.757-70.152 7.838-5.354 7.12-9.88 17-13.357 29.308-1.49 5.409-3.091 10.873-4.637 16.282-9.272 32.234-18.048 62.702-13.025 78.432 4.857 15.234 18.49 24.562 41.561 28.425a2.876 2.876 0 012.374 2.595l5.022 56.077c.166 1.546-1.048 2.981-2.594 3.091.055-.11 0-.11-.11-.11z" fill="#201000"/><path d="M215.867 168.524c-18.159 17.607-38.912 42.003-23.182 67.889 1.656 2.76 5.63-.276 3.974-3.035-14.13-23.182 6.348-45.536 22.188-60.88 2.319-2.208-.662-6.237-2.98-3.974zm30.136 70.042c-2.981 6.734-11.205 9.604-17.828 6.458-2.926-1.38-4.857 3.201-1.987 4.581 9.052 4.361 20.367.111 24.396-9.052 1.324-2.98-3.312-4.967-4.581-1.987zm88.918-43.217c-11.646.11-22.409 5.961-28.977 15.509-1.821 2.65 2.097 5.741 3.919 3.091 5.961-8.665 15.234-13.522 25.721-13.633 3.201 0 2.539-4.967-.663-4.967zm-79.315-18.546c-3.974-.552-4.857 5.63-.827 6.182 3.918.607 4.801-5.63.827-6.182zm-61.1-15.344c-3.974-.552-4.857 5.63-.828 6.182 3.974.552 4.857-5.63.828-6.182zm9.769-16.393c-.165-1.435-1.435-2.208-2.815-2.153-1.269.056-2.539.056-3.808.111-1.38.055-2.318 1.545-2.153 2.815.166 1.435 1.435 2.208 2.815 2.152 1.27-.055 2.539-.055 3.809-.11 1.324-.055 2.318-1.546 2.152-2.815zm61.378 17.441c-1.104-1.214-2.208-2.428-3.312-3.587-.883-.994-2.373-1.325-3.533-.497-.993.773-1.379 2.484-.496 3.532 1.104 1.215 2.207 2.429 3.311 3.588.883.993 2.374 1.325 3.533.497 1.049-.773 1.435-2.539.497-3.533zm25.333-22.078c-9.714-11.59-22.63-19.097-37.367-22.298-.662-.166-1.214 0-1.655.276l-1.159-.331c-.773-.221-1.546-.166-2.208.165l-3.478-4.802c-1.876-2.594-5.85.387-3.974 3.036 14.572 20.146 28.426 41.12 43.77 60.659 4.857 6.127 17.276 14.351 20.477 1.601 3.146-12.309-6.899-29.419-14.406-38.306zm-175.85 213.549c-.11 0-.276 0-.386-.055a2.875 2.875 0 01-2.429-3.257c1.049-7.175 5.244-13.191 12.143-17.386 16.338-9.88 45.646-8.114 82.571 4.967a2.9 2.9 0 011.767 3.643 2.9 2.9 0 01-3.643 1.767c-47.578-16.835-69.104-10.653-77.659-5.465-5.409 3.257-8.666 7.838-9.439 13.302-.276 1.49-1.49 2.484-2.925 2.484z" fill="#201000"/></svg>

<svg width="353" height="356" viewBox="0 0 353 356" fill="none" xmlns="http://www.w3.org/2000/svg">
<path d="M277.079 211.218L232.987 204.057L243.434 176.074C245.744 169.881 242.725 167.066 236.715 169.812L184.501 193.683L162.704 163.614C159.573 159.298 155.644 159.906 153.965 164.967L142.284 200.227L85.2951 193.265C78.736 192.465 76.71 196.062 80.7843 201.266L99.2107 224.771L59.3432 244.934C51.8449 248.724 52.496 252.928 60.7903 254.279L104.882 261.44L94.4349 289.423C92.1256 295.616 95.1444 298.431 101.154 295.685L153.368 271.814L175.167 301.89C178.297 306.205 182.227 305.597 183.905 300.536L195.587 265.276L252.575 272.238C259.134 273.038 261.16 269.442 257.086 264.237L238.665 240.725L278.526 220.563C286.024 216.773 285.373 212.569 277.079 211.218Z" fill="#171717"/>
<path d="M261.789 59.5139V59.2931C261.789 26.8938 235.516 0.621094 203.117 0.621094C170.717 0.621094 144.445 26.8938 144.445 59.2931V59.5139H58.1753V145.121C25.9967 145.397 0 171.559 0 203.738C0 235.971 25.9967 262.134 58.1753 262.354V351.549H351.922V59.5139H261.789Z" fill="#853EF3"/>
<path d="M324.268 128.618C312.788 127.514 302.025 132.537 296.395 142.306C294.794 142.361 293.304 143.796 294.187 145.673C303.294 164.439 309.2 184.42 311.022 205.228C312.677 224.105 309.421 242.981 311.132 261.803C313.285 285.04 328.463 309.491 351.811 312.803V147.715C345.629 137.78 336.19 129.777 324.268 128.618Z" fill="#201000"/>
<path d="M313.892 205.725C320.792 157.816 288.503 122.823 245.948 106.982C229.279 100.8 206.042 91.9135 189.815 103.615C178.113 112.004 177.561 128.784 190.256 136.18C191.084 136.676 191.857 136.566 192.409 136.18C224.477 169.959 263.941 195.293 308.262 210.03C310.139 210.637 311.574 209.202 311.74 207.712C312.788 207.712 313.727 207.05 313.892 205.725Z" fill="#201000"/>
<path d="M351.921 178.68V223.939C340.992 234.316 321.619 238.566 304.012 239.946C304.012 239.946 293.304 271.848 275.532 280.9C277.408 312.306 279.23 336.868 280.389 351.605C280.444 351.991 280.444 352.433 280.499 352.764H208.304L208.194 351.605L203.282 296.686C183.632 293.429 165.584 285.426 159.457 266.329C153.275 247.011 166.412 208.043 177.064 169.959C180.597 157.374 185.123 147.274 190.863 139.712C206.428 118.848 230.493 116.475 264.437 130.991C303.846 147.826 300.755 182.157 300.755 182.157C323.165 170.732 341.71 171.615 351.921 178.68Z" fill="white"/>
<path d="M280.445 355.635C278.954 355.635 277.74 354.476 277.575 352.985C276.581 340.732 274.704 315.122 272.607 281.011C272.552 279.852 273.159 278.804 274.152 278.307C290.711 269.917 301.143 239.339 301.253 239.008C301.639 237.904 302.578 237.132 303.737 237.076C318.75 235.917 337.406 233.102 348.058 221.622C349.162 220.463 350.928 220.407 352.087 221.456C353.247 222.56 353.302 224.326 352.253 225.485C340.662 237.904 321.73 241.271 306.055 242.596C303.516 249.385 293.802 273.339 278.458 282.446C280.5 315.618 282.376 340.511 283.315 352.488C283.425 354.089 282.266 355.469 280.665 355.579C280.61 355.635 280.555 355.635 280.445 355.635Z" fill="#201000"/>
<path d="M208.25 355.634C206.759 355.634 205.545 354.53 205.38 353.04L200.578 299.17C176.458 294.699 162.107 284.212 156.698 267.267C151.123 249.881 160.12 218.585 169.669 185.469C171.214 180.06 172.76 174.65 174.305 169.241C178.003 156.05 182.695 145.894 188.545 138.056C204.772 116.365 229.941 113.219 265.487 128.397C297.444 142.03 302.688 167.144 303.461 177.631C329.016 165.819 343.808 170.732 351.756 177.245C352.97 178.238 353.191 180.059 352.198 181.274C351.204 182.488 349.383 182.709 348.168 181.715C338.013 173.491 322.061 174.54 301.97 184.751C301.032 185.248 299.928 185.137 299.045 184.585C298.162 183.978 297.72 182.985 297.776 181.936C297.886 180.611 300.094 149.426 263.168 133.696C229.941 119.456 207.643 121.939 193.016 141.534C187.662 148.654 183.136 158.534 179.659 170.842C178.169 176.251 176.568 181.715 175.022 187.124C165.75 219.358 156.974 249.826 161.997 265.556C166.854 280.79 180.487 290.118 203.558 293.981C204.828 294.202 205.821 295.251 205.932 296.576L210.954 352.653C211.12 354.199 209.906 355.634 208.36 355.744C208.415 355.634 208.36 355.634 208.25 355.634Z" fill="#201000"/>
<path d="M215.867 168.524C197.708 186.131 176.955 210.527 192.685 236.413C194.341 239.173 198.315 236.137 196.659 233.378C182.529 210.196 203.007 187.842 218.847 172.498C221.166 170.29 218.185 166.261 215.867 168.524Z" fill="#201000"/>
<path d="M246.003 238.566C243.022 245.3 234.798 248.17 228.175 245.024C225.249 243.644 223.318 248.225 226.188 249.605C235.24 253.966 246.555 249.716 250.584 240.553C251.908 237.573 247.272 235.586 246.003 238.566Z" fill="#201000"/>
<path d="M334.921 195.349C323.275 195.459 312.512 201.31 305.944 210.858C304.123 213.508 308.041 216.599 309.863 213.949C315.824 205.284 325.097 200.427 335.584 200.316C338.785 200.316 338.123 195.349 334.921 195.349Z" fill="#201000"/>
<path d="M255.606 176.803C251.632 176.251 250.749 182.433 254.779 182.985C258.697 183.592 259.58 177.355 255.606 176.803Z" fill="#201000"/>
<path d="M194.506 161.459C190.532 160.907 189.649 167.089 193.678 167.641C197.652 168.193 198.535 162.011 194.506 161.459Z" fill="#201000"/>
<path d="M204.275 145.066C204.11 143.631 202.84 142.858 201.46 142.913C200.191 142.969 198.921 142.969 197.652 143.024C196.272 143.079 195.334 144.569 195.499 145.839C195.665 147.274 196.934 148.047 198.314 147.991C199.584 147.936 200.853 147.936 202.123 147.881C203.447 147.826 204.441 146.335 204.275 145.066Z" fill="#201000"/>
<path d="M265.653 162.507C264.549 161.293 263.445 160.079 262.341 158.92C261.458 157.926 259.968 157.595 258.808 158.423C257.815 159.196 257.429 160.907 258.312 161.955C259.416 163.17 260.519 164.384 261.623 165.543C262.506 166.536 263.997 166.868 265.156 166.04C266.205 165.267 266.591 163.501 265.653 162.507Z" fill="#201000"/>
<path d="M290.986 140.429C281.272 128.839 268.356 121.332 253.619 118.131C252.957 117.965 252.405 118.131 251.964 118.407C251.577 118.296 251.191 118.186 250.805 118.076C250.032 117.855 249.259 117.91 248.597 118.241C247.438 116.641 246.279 115.04 245.119 113.439C243.243 110.845 239.269 113.826 241.145 116.475C255.717 136.621 269.571 157.595 284.915 177.134C289.772 183.261 302.191 191.485 305.392 178.735C308.538 166.426 298.493 149.316 290.986 140.429Z" fill="#201000"/>
<path d="M115.136 353.978C115.026 353.978 114.86 353.978 114.75 353.923C113.204 353.702 112.1 352.267 112.321 350.666C113.37 343.491 117.565 337.475 124.464 333.28C140.802 323.4 170.11 325.166 207.035 338.247C208.526 338.799 209.298 340.4 208.802 341.89C208.25 343.381 206.649 344.153 205.159 343.657C157.581 326.822 136.055 333.004 127.5 338.192C122.091 341.449 118.834 346.03 118.061 351.494C117.785 352.984 116.571 353.978 115.136 353.978Z" fill="#201000"/>
</svg>
